packages/vibrant-icons/assets/icons/CouponVertical/Regular.svg

<svg fill="none" height="24" viewBox="0 0 24 24" width="24" xmlns="http://www.w3.org/2000/svg"><path d="m20.5999 22.8499c0 .1381-.1119.25-.25.25h-6.45v-.1c0-1.0475-.8525-1.9-1.9-1.9s-1.9.8525-1.9 1.9v.1h-6.45c-.13807 0-.25-.1119-.25-.25v-21.70001c0-.13807.11193-.249995.25-.249995h6.45v.099998c0 1.047497.8525 1.899997 1.9 1.899997s1.9-.8525 1.9-1.899997v-.099998h6.45c.1381 0 .25.111925.25.249995zm-2.2-19.75001h-2.8795c-.7405 1.2355-2.0835 2-3.5205 2s-2.78-.7645-3.5205-2h-2.8795v17.80001h2.8795c.7405-1.2355 2.0835-2 3.5205-2s2.78.7645 3.5205 2h2.8795z" fill="#0c0c0c"/></svg>

<svg xmlns="http://www.w3.org/2000/svg" width="24" height="24" fill="none"><path fill="#0c0c0c" d="M20.6 22.85a.25.25 0 0 1-.25.25H13.9V23c0-1.048-.853-1.9-1.9-1.9s-1.9.852-1.9 1.9v.1H3.65a.25.25 0 0 1-.25-.25V1.15A.25.25 0 0 1 3.65.9h6.45V1c0 1.047.852 1.9 1.9 1.9s1.9-.853 1.9-1.9V.9h6.45a.25.25 0 0 1 .25.25zM18.4 3.1h-2.88c-.74 1.235-2.083 2-3.52 2s-2.78-.765-3.52-2H5.6v17.8h2.88c.74-1.236 2.083-2 3.52-2s2.78.764 3.52 2h2.88z"/></svg>
